!!!COM: Robert Schumann
!!!CNT: Deutsch
!!!TXO: Deutsch
!!!OTL: Der arme Peter III
!!!LYR: Heine
!!!OPR: Ausgewa2hlte Lieder
!!!OPS: Op. 53
!!!ONM: No. 3
!!!ENC: Ben Fuhrman
!!!YOR: Schumann Lieder - Max Friedlaender, ed.,
!!!YOR: New York: C. F. Peters, Vol. 1
!!!ODT: 1840/
!!NB: Vocal melody and text only encoded.
!!NB: First instance of melodic material only encoded.
**kern	**silbe
*clefG2	*
*k[b-]	*
*M3/4	*
!!created: 5/30/06 9:15
!!proofed and posted: 5/30/06 9:15
!!edit time: 25 minutes
=	=
2r	.
{4g	{Der
=1	=1
8.a	ar-
16f	-me
8d	Pe-
8d	-ter
(12e	wankt
12d)	|
12e	vor-
=2	=2
2f	-bei,
4f#	gar
=3	=3
8.g	lang-
16a	-sam,
8b-	lei-
8a	-chen
8g	blass
8f	und
=4	=4
2e}	scheu.}
{4a	{Es
=5	=5
8.a	blei-
16f	-ben
8d	fast,
8d	wie
(12e	sie
12d)	|
12e	ihn
=6	=6
2f	seh'n,
4f#	die
=7	=7
8.g	Leu-
16a	-te
8b-	auf
8a	den
8g	Strass-
8f	-en
=8	=8
2e}	steh'n.}
{4e	{Die
=9	=9
8.f	Ma2d-
16f	-chen
8f	flu2-
8f	-stern
(12g	sich
12f)	|
12g	ins
=10	=10
4a	Ohr:
2c	"Der
=11	=11
8.f	stieg
16f	wohl
8f	aus
8f	dem
(12g	Grab
12f)	|
12g	her-
=12	=12
2a}	-vor?"}
{(8b-	{Ach
8a)	|
=13	=13
8.a	nein,
16f	ihr
8d	lie-
8d	-ben
(12e	Jung
12d)	|
12e	fra2u-
=14	=14
4f	-lein,
2f#	der
=15	=15
8.g	steigt
16a	erst
8b-	in
8g	das
8f	Grab
8e	hin-
=16	=16
2d}	-ein.}
{4d	{Er
=17	=17
8.e	hat
16e	ver-
4.e	-lo-
8e	-ren
=18	=18
8.f	sein-
16f	-en
4.f	Schatz,
8f	drum
=19	=19
8.g	ist
16g	das
4.g	Grab
8g	der
=20	=20
8.a	bes-
16a	-te
4a}	Platz,}
{4a	{wo
=21	=21
8.bn	er
16bn	am
4.bn	be-
8bn	-sten
=22	=22
8.cc#	lie-
16dd	-gen
8ee	mag
8cc#	und
8dd	schla-
8b	-fen
=23	=23
8a	bis
8d	zum
4.f	ju2ng-
8e	-sten
=24	=24
2.d}	Tag.}
==	==
*-	*-
